X:1
T:I Will Shout His Praise in Glory
T:I Will Shout His Praise in Glory
T:John Robson Sweney
T:P. H. Dingman, 1889
T:Public Domain Courtesy of the Cyber Hymnal™
T:Public Domain Courtesy of the Cyber Hymnal™
C:John Robson Sweney
Z:Public Domain
Z:Courtesy of the Cyber Hymnal™
%%score ( 1 2 ) ( 3 4 )
L:1/8
Q:1/4=90
M:4/4
K:Db
V:1 treble 
V:2 treble 
V:3 bass 
V:4 bass 
V:1
 [FA]2 | [FA][DF][CE]D [DF] [FA]2 [GB] | [FA][DF][DF][CE] D3 [DA] | %3
w: 1.~You|ask what makes me hap- py, My|heart so free from care; It|
w: 2.~I|was a friend- less wan- derer, Till|Je- sus took me in, My|
w: 3.~I|wish that ev- ery sin- ner Be-|fore His throne would bow; He|
w: 4.~I|mean to live for Je- sus While|here on earth I stay, And|
 [Fd][Fd][Fd][Ge] [Fd]2 [FA][GB] | [FA][DF][DF]D [CE]3 [DF] | [EG][EG][Gc][GB] [FA]2 [Fd][DF] | %6
w: is be- cause my Sav- ior In|mer- cy heard my prayer; He|brought me out of dark- ness, And|
w: life was full of sor- row, My|heart was full of sin; But|when the blood, so pre- cious, Spoke|
w: waits to give them wel- come, He|longs to bless them now; If|they but knew the rap- ture That|
w: when His voice shall call me To|realms of end- less day, As|one by one we ga- ther, Re-|
 [CE][DF][EG][CA] [DF]3 [FA] | [Fd][Fd][Fd][Ge] [Af] [Fd]2 [DB] | [DA][DF] [CE]>D !fermata!D2 || %9
w: now the light I see; O|bless- èd, lov- ing Sav- ior! To|Him the praise shall be.|
w: par- don to my soul, O|bliss- ful, bliss- ful mo- ment! ’Twas|joy be- yond con- trol.|
w: in His love I see, They’d|come and shout sal- va- tion, And|sing His praise with me.|
w: joic- ing on the shore, We’ll|shout His praise in glo- ry, And|sing for- ev- er- more.|
"^Refrain" [FA][FA] |: [Fd]>[Fd] [Fd][Ge] [Af] d3- |1 d6 D>[DE] | %12
w: |||
w: I will|shout His praise in glo- ry,|* And we’ll|
w: |||
w: |||
 [DF][FA][FA][GB] [FA] [Fd]2 [DF] | [DF][DE][DE]D !fermata![CE]2 [_GA][GA] :|2 D>[CE] || %15
w: |||
w: all sing hal- le- lu- jah In|Hea- ven by and by; I will|And we’ll|
w: |||
w: |||
 [DF][FA][FA][GB] [FA] [Fd]2 [Ad] | [Ge][Ge][Fd][Ec] [Fd]2 |] %17
w: ||
w: all sing hal- le- lu- jah In|Hea- ven by and by.|
w: ||
w: ||
V:2
 x2 | x3 D x4 | x4 D3 x | x8 | x3 D x4 | x8 | x8 | x8 | x7/2 D/ D2 || x2 |: x5 FFF |1 %11
 (G2 GG F2) D3/2 x/ | x8 | x3 D x4 :|2 D3/2 x/ || x8 | x6 |] %17
V:3
 [D,D]2 | [D,D][D,A,][D,G,][D,F,] [D,A,] [D,D]2 [D,D] | [D,D][D,A,][A,,A,][A,,G,] [D,F,]3 [D,F,] | %3
w: ~|~ ~ ~ ~ ~ ~ ~|~ ~ ~ ~ ~ ~|
 [D,A,][D,A,][D,A,][D,A,] [D,A,]2 [D,D][D,D] | [D,D][D,A,][D,A,][D,F,] [A,,A,]3 [A,,A,] | %5
w: ~ ~ ~ ~ ~ ~ ~|~ ~ ~ ~ ~ ~|
 [A,,C][A,,C][A,,A,][A,,C] [D,D]2 [D,A,][D,A,] | [A,,A,][A,,A,][A,,A,][A,,A,] [D,A,]3 [D,D] | %7
w: ~ ~ ~ ~ ~ ~ ~|~ ~ ~ ~ ~ ~|
 [D,A,][D,A,][D,A,][D,A,] [D,D] [D,A,]2 [G,,G,] | [A,,F,][A,,A,] [A,,G,]>[D,F,] !fermata![D,F,]2 || %9
w: ~ ~ ~ ~ ~ ~ ~|~ ~ ~ ~ ~|
 [D,A,][D,A,] |: [D,A,]>[D,A,] [D,A,][D,A,] [D,D][D,A,][D,A,][D,A,] |1 %11
w: ~ ~|~ ~ ~ ~ ~ ~ So will|
 [G,B,]2 [G,B,][G,B,] [D,A,]2 [D,F,]>[E,G,] | [D,A,][D,D][D,D][D,D] [D,D] [D,A,]2 [D,A,] | %13
w: I, so will I * *||
 [E,=G,][E,G,][E,G,][E,G,] !fermata![A,,A,]2 [A,C][A,C] :|2 [F,A,]>[E,A,] || %15
w: ||
 [D,A,][D,D][D,D][D,D] [D,D] [D,A,]2 [F,A,] | [G,B,][G,B,]A,A, [D,A,]2 |] %17
w: ||
V:4
 x2 | x8 | x8 | x8 | x8 | x8 | x8 | x8 | x6 || x2 |: x8 |1 x8 | x8 | x8 :|2 x2 || x8 | %16
 x2 A,A, x2 |] %17

